apps/www/public/images/logos/publicity/archive/pwc.svg

<svg width="104" height="31" viewBox="0 0 104 31" fill="none" xmlns="http://www.w3.org/2000/svg">
<g clip-path="url(#clip0_114_234)">
<mask id="mask0_114_234" style="mask-type:luminance" maskUnits="userSpaceOnUse" x="-3" y="0" width="107" height="62">
<path d="M103.945 0.494385H-2.77539V61.0259H103.945V0.494385Z" fill="white"/>
</mask>
<g mask="url(#mask0_114_234)">
<path d="M103.945 26.4862H74.6519V19.0611H103.945V26.4862Z" fill="#B4B4B4"/>
<path d="M100.14 26.4861H74.6519V7.9156H100.14V26.4861Z" fill="#B4B4B4"/>
<path d="M89.6098 26.4861H74.6519V0.494537H89.6098V26.4861Z" fill="#B4B4B4"/>
<path d="M92.5524 26.486H74.6519V3.39471H92.5524V26.486Z" fill="#B4B4B4"/>
<path d="M74.6475 3.39908V26.4836H89.6079V3.39908H74.6475Z" fill="#898989"/>
<path d="M59.6519 26.4861H74.6513V30.1988H59.6519V26.4861Z" fill="#363636"/>
<path d="M89.52 7.91159V19.1126H92.561V7.91159H89.52Z" fill="#898989"/>
<path d="M74.6475 7.91159V26.4837H89.6079V7.91159H74.6475Z" fill="#4D4D4D"/>
<path d="M84.0058 19.1852H74.6519V15.3397H84.0058V19.1852Z" fill="#383838"/>
<path d="M74.6475 19.0664V26.4836H100.149V19.0664H74.6475Z" fill="#898989"/>
<path d="M89.5923 19.0664V26.4836H92.561V19.0664H89.5923Z" fill="#4D4D4D"/>
<path d="M74.6475 19.0664V26.4836H89.6079V19.0664H74.6475Z" fill="#383838"/>
<path d="M74.6475 19.0664V26.4836H84.0149V19.0664H74.6475Z" fill="#363636"/>
<path d="M61.8194 7.20978C59.2673 7.65912 57.9062 9.56866 57.9062 12.8824C57.9062 16.2521 59.7209 18.4988 62.3865 18.4988C63.6911 18.4988 64.8253 18.0495 67.2073 16.87C67.2073 19.6221 67.2073 19.6221 67.2073 19.6221C64.3149 20.9699 62.6135 21.307 60.345 21.307C57.7927 21.307 55.9779 20.6891 54.56 19.1727C53.0854 17.7125 52.2915 15.803 52.2915 13.6125C52.2915 8.83856 55.9212 5.52502 61.1956 5.52502C64.6552 5.52502 67.0938 7.1538 67.0938 9.45648C67.0938 10.9729 65.9596 12.0399 64.3149 12.0399C63.4641 12.0399 62.7835 11.7592 61.8194 11.2536" fill="#B4B4B4"/>
<path d="M49.0585 13.6125C51.3838 10.7481 52.2346 9.56866 52.2346 8.16465C52.2346 6.76065 51.1003 5.52502 49.5123 5.52502C48.6049 5.52502 47.7541 6.03035 47.3571 6.47969C47.3571 12.3769 47.3571 12.3769 47.3571 12.3769C43.5573 17.4316 43.5573 17.4316 43.5573 17.4316C43.5573 5.97436 43.5573 5.97436 43.5573 5.97436C39.9276 5.97436 39.9276 5.97436 39.9276 5.97436C33.9157 15.803 33.9157 15.803 33.9157 15.803C33.9157 5.97436 33.9157 5.97436 33.9157 5.97436C31.8742 5.97436 31.8742 5.97436 31.8742 5.97436C26.3728 7.20979 26.3728 7.20978 26.3728 7.20978C26.3728 8.61399 26.3728 8.61399 26.3728 8.61399C29.3787 8.89475 29.3787 8.89475 29.3787 8.89475C29.3787 21.0823 29.3787 21.0823 29.3787 21.0823C33.1786 21.0823 33.1786 21.0823 33.1786 21.0823C38.9633 11.6468 38.9633 11.6468 38.9633 11.6468C38.9633 21.0823 38.9633 21.0823 38.9633 21.0823C43.217 21.0823 43.217 21.0823 43.217 21.0823" fill="#B4B4B4"/>
<path d="M14.8599 19.1728C15.3136 19.1728 15.4271 19.1728 15.7106 19.1728C18.7732 19.1728 20.4747 17.3195 20.4747 13.6126C20.4747 10.5237 19.1135 8.83868 16.5613 8.83868C16.2211 8.83868 15.7106 8.89488 14.8599 9.06346V19.1728ZM14.8599 25.8001C17.3554 26.3618 17.3554 26.3618 17.3554 26.3618C17.3554 27.7659 17.3554 27.7658 17.3554 27.7658C7.54375 27.7658 7.54375 27.7658 7.54375 27.7658C7.54375 26.3618 7.54375 26.3618 7.54375 26.3618C9.81234 25.8001 9.81234 25.8001 9.81234 25.8001C9.81234 8.83868 9.81234 8.83868 9.81234 8.83868C7.31689 8.83868 7.31689 8.83868 7.31689 8.83868C7.31689 7.43468 7.31689 7.43468 7.31689 7.43468C13.2719 5.63733 13.2719 5.63733 13.2719 5.63733C14.8599 5.63733 14.8599 5.63733 14.8599 5.63733C14.8599 7.65925 14.8599 7.65925 14.8599 7.65925C17.6389 5.97449 18.6031 5.69352 20.0777 5.69352C23.3671 5.69352 25.8625 8.7265 25.8625 12.9387C25.8625 17.7688 22.5164 21.0824 17.4121 21.0824C16.8449 21.0824 15.8808 21.0262 14.8599 20.97" fill="#B4B4B4"/>
</g>
</g>
<defs>
<clipPath id="clip0_114_234">
<rect width="103" height="30" fill="white" transform="translate(0.384766 0.260132)"/>
</clipPath>
</defs>
</svg>

<svg xmlns="http://www.w3.org/2000/svg" width="104" height="31" fill="none" viewBox="0 0 104 31"><g clip-path="url(#a)"><mask id="b" width="107" height="62" x="-3" y="0" maskUnits="userSpaceOnUse" style="mask-type:luminance"><path fill="#fff" d="M103.945.494H-2.775v60.532h106.72z"/></mask><g mask="url(#b)"><path fill="#b4b4b4" d="M103.945 26.486H74.652v-7.425h29.293z"/><path fill="#b4b4b4" d="M100.14 26.486H74.652V7.916h25.488z"/><path fill="#b4b4b4" d="M89.61 26.486H74.652V.495H89.61z"/><path fill="#b4b4b4" d="M92.552 26.486h-17.9V3.395h17.9z"/><path fill="#898989" d="M74.648 3.4v23.084h14.96V3.399z"/><path fill="#363636" d="M59.652 26.486h15V30.2h-15z"/><path fill="#898989" d="M89.52 7.912v11.2h3.041v-11.2z"/><path fill="#4d4d4d" d="M74.648 7.912v18.572h14.96V7.912z"/><path fill="#383838" d="M84.006 19.185h-9.354V15.34h9.354z"/><path fill="#898989" d="M74.648 19.066v7.418h25.501v-7.418z"/><path fill="#4d4d4d" d="M89.592 19.066v7.418h2.969v-7.418z"/><path fill="#383838" d="M74.648 19.066v7.418h14.96v-7.418z"/><path fill="#363636" d="M74.648 19.066v7.418h9.367v-7.418z"/><path fill="#b4b4b4" d="M61.82 7.21c-2.553.45-3.914 2.359-3.914 5.672 0 3.37 1.815 5.617 4.48 5.617 1.305 0 2.44-.45 4.821-1.629v2.752c-2.892 1.348-4.593 1.685-6.862 1.685-2.552 0-4.367-.618-5.785-2.134-1.475-1.46-2.269-3.37-2.269-5.56 0-4.774 3.63-8.088 8.905-8.088 3.46 0 5.898 1.629 5.898 3.931 0 1.517-1.134 2.584-2.78 2.584-.85 0-1.53-.28-2.495-.786M49.059 13.613c2.325-2.865 3.176-4.044 3.176-5.448s-1.135-2.64-2.723-2.64c-.907 0-1.758.505-2.155.955v5.897l-3.8 5.055V5.974h-3.63l-6.011 9.829V5.974h-2.042L26.373 7.21v1.404l3.006.28v12.188h3.8l5.784-9.435v9.435h4.254M14.86 19.173h.85c3.063 0 4.765-1.853 4.765-5.56 0-3.09-1.362-4.774-3.914-4.774-.34 0-.85.056-1.701.224zm0 6.627 2.495.562v1.404H7.544v-1.404l2.268-.562V8.84H7.317V7.435l5.955-1.798h1.588V7.66c2.779-1.685 3.743-1.965 5.218-1.965 3.29 0 5.785 3.032 5.785 7.245 0 4.83-3.347 8.143-8.45 8.143-.568 0-1.532-.056-2.553-.112"/></g></g><defs><clipPath id="a"><path fill="#fff" d="M.385.26h103v30h-103z"/></clipPath></defs></svg>
